public/coins/aTUSD.svg

<svg height="256" viewBox="0 0 256 256" width="256" xmlns="http://www.w3.org/2000/svg" xmlns:xlink="http://www.w3.org/1999/xlink"><linearGradient id="a" gradientUnits="objectBoundingBox" x1=".843" x2=".206" y1=".135" y2=".886"><stop offset="0" stop-color="#b6509e"/><stop offset="1" stop-color="#2ebac6"/></linearGradient><clipPath id="b"><path d="m0 0h256v256h-256z"/></clipPath><g clip-path="url(#b)"><path d="m128 256a128.976 128.976 0 0 1 -25.8-2.6 127.309 127.309 0 0 1 -45.77-19.261 128.366 128.366 0 0 1 -46.375-56.315 127.357 127.357 0 0 1 -7.455-24.024 129.251 129.251 0 0 1 0-51.593 127.31 127.31 0 0 1 19.26-45.77 128.372 128.372 0 0 1 56.317-46.378 127.33 127.33 0 0 1 24.023-7.459 129.244 129.244 0 0 1 51.593 0 127.308 127.308 0 0 1 45.77 19.26 128.367 128.367 0 0 1 46.375 56.316 127.343 127.343 0 0 1 7.462 24.024 129.248 129.248 0 0 1 0 51.593 127.3 127.3 0 0 1 -19.26 45.77 128.382 128.382 0 0 1 -56.316 46.375 127.4 127.4 0 0 1 -24.024 7.462 128.977 128.977 0 0 1 -25.8 2.6zm0-242.287a115.145 115.145 0 0 0 -23.033 2.322 113.657 113.657 0 0 0 -40.867 17.197 114.622 114.622 0 0 0 -41.4 50.283 113.7 113.7 0 0 0 -6.659 21.452 115.4 115.4 0 0 0 0 46.065 113.66 113.66 0 0 0 17.2 40.866 114.627 114.627 0 0 0 50.282 41.407 113.75 113.75 0 0 0 21.453 6.658 115.381 115.381 0 0 0 46.065 0 113.609 113.609 0 0 0 40.866-17.2 114.622 114.622 0 0 0 41.393-50.278 113.741 113.741 0 0 0 6.659-21.453 115.4 115.4 0 0 0 0-46.065 113.662 113.662 0 0 0 -17.2-40.865 114.619 114.619 0 0 0 -50.274-41.402 113.74 113.74 0 0 0 -21.453-6.659 115.145 115.145 0 0 0 -23.032-2.327z" fill="url(#a)"/><g transform="translate(29.714 29.714)"><path d="m98.285 196.571c-54.057 0-98.285-44.229-98.285-98.286 0-54.057 44.228-98.285 98.285-98.285 54.057 0 98.285 44.228 98.285 98.285.001 54.057-44.228 98.286-98.285 98.286z" fill="#002868"/><path d="m208.507 217.942h-99.072a9.463 9.463 0 0 1 -9.435-9.435v-99.072a9.463 9.463 0 0 1 9.435-9.435h99.072a9.463 9.463 0 0 1 9.435 9.435v99.072a9.463 9.463 0 0 1 -9.435 9.435z" fill="#fff" transform="translate(-60.686 -60.686)"/><g fill="#002868"><path d="m147.252 336.993a.59.59 0 0 1 -.562-.594v-15.847a.59.59 0 0 0 -.562-.594h-5.594a.587.587 0 0 1 -.594-.562v-3.063a.617.617 0 0 1 .594-.594h17.22a.614.614 0 0 1 .594.594v3.067a.59.59 0 0 1 -.594.562h-5.564a.614.614 0 0 0 -.594.594v15.844a.59.59 0 0 1 -.562.594z" transform="translate(-84.924 -191.609)"/><path d="m209.2 316.334a.59.59 0 0 1 .562-.594h3.751a.614.614 0 0 1 .594.594v10.815c0 6.408-3.625 10.127-9.376 10.127-5.72 0-9.314-3.719-9.314-10.127v-10.815a.59.59 0 0 1 .562-.594h3.751a.614.614 0 0 1 .594.594v10.966c0 3.157 1.624 5.406 4.439 5.406s4.439-2.249 4.439-5.406v-10.966z" transform="translate(-118.593 -191.609)"/><path d="m265.526 322.3a.8.8 0 0 1 -.845-.562 4.282 4.282 0 0 0 -4.281-2.5c-1.97 0-3.625.688-3.625 2 0 1.439 1.533 2.033 4.906 2.437 5.127.594 8.063 2.158 8.063 6.22 0 4.564-4 6.97-9.125 6.97-4.439 0-8.252-2.158-8.846-6.687-.063-.436.157-.594.594-.594h3.44a.774.774 0 0 1 .814.531c.468 1.5 2.064 2.658 4.376 2.658 2.033 0 3.813-.751 3.813-2.343 0-1.907-1.875-2.249-5.626-2.721-4.313-.562-7.312-1.812-7.312-5.783s3.409-6.813 8.751-6.813c4.812 0 8.158 2.595 8.846 6.471.094.436-.031.719-.5.719h-3.444z" transform="translate(-152.785 -191.227)"/><path d="m307.442 336.993a.59.59 0 0 1 -.562-.594v-20.065a.59.59 0 0 1 .562-.594h8.5c6.314 0 11.22 4.344 11.22 10.69 0 6.251-4.844 10.564-11.22 10.564zm8.5-4.222a6.417 6.417 0 0 0 -.031-12.816h-3.53a.587.587 0 0 0 -.562.594v11.651a.562.562 0 0 0 .562.562h3.562z" transform="translate(-186.233 -191.609)"/><path d="m217.225 175.552h-111.652a1.577 1.577 0 0 1 -1.573-1.573v-62.116a7.886 7.886 0 0 1 7.863-7.863h99.072a7.886 7.886 0 0 1 7.863 7.863v62.116a1.577 1.577 0 0 1 -1.573 1.573z" transform="translate(-63.113 -63.113)"/></g><path d="m247.131 183.164h-10.222a1.183 1.183 0 0 1 -1.179-1.179v-43.246a1.183 1.183 0 0 1 1.179-1.179h10.222a1.183 1.183 0 0 1 1.179 1.179v43.246a1.183 1.183 0 0 1 -1.179 1.179z" fill="#fff" transform="translate(-143.055 -83.479)"/><path d="m235.57 150.141h-46.391a1.183 1.183 0 0 1 -1.179-1.18v-10.222a1.183 1.183 0 0 1 1.179-1.179h46.391a1.183 1.183 0 0 1 1.179 1.179v10.222a1.183 1.183 0 0 1 -1.179 1.18z" fill="#fff" transform="translate(-114.089 -83.479)"/></g></g></svg>

<svg xmlns="http://www.w3.org/2000/svg" xmlns:xlink="http://www.w3.org/1999/xlink" width="256" height="256" viewBox="0 0 256 256"><defs><linearGradient id="a" x1="0.843" y1="0.135" x2="0.206" y2="0.886" gradientUnits="objectBoundingBox"><stop offset="0" stop-color="#b6509e"/><stop offset="1" stop-color="#2ebac6"/></linearGradient><clipPath id="c"><rect width="256" height="256"/></clipPath></defs><g id="b" clip-path="url(#c)"><g transform="translate(-20 -20)"><path d="M128,256a128.976,128.976,0,0,1-25.8-2.6,127.309,127.309,0,0,1-45.77-19.261,128.366,128.366,0,0,1-46.375-56.315A127.357,127.357,0,0,1,2.6,153.8a129.251,129.251,0,0,1,0-51.593,127.31,127.31,0,0,1,19.26-45.77A128.372,128.372,0,0,1,78.177,10.059,127.33,127.33,0,0,1,102.2,2.6a129.244,129.244,0,0,1,51.593,0,127.308,127.308,0,0,1,45.77,19.26,128.367,128.367,0,0,1,46.375,56.316A127.343,127.343,0,0,1,253.4,102.2a129.248,129.248,0,0,1,0,51.593,127.3,127.3,0,0,1-19.26,45.77,128.382,128.382,0,0,1-56.316,46.375A127.4,127.4,0,0,1,153.8,253.4,128.977,128.977,0,0,1,128,256Zm0-242.287a115.145,115.145,0,0,0-23.033,2.322A113.657,113.657,0,0,0,64.1,33.232,114.622,114.622,0,0,0,22.7,83.515a113.7,113.7,0,0,0-6.659,21.452,115.4,115.4,0,0,0,0,46.065,113.66,113.66,0,0,0,17.2,40.866,114.627,114.627,0,0,0,50.282,41.407,113.75,113.75,0,0,0,21.453,6.658,115.381,115.381,0,0,0,46.065,0,113.609,113.609,0,0,0,40.866-17.2A114.622,114.622,0,0,0,233.3,172.485a113.741,113.741,0,0,0,6.659-21.453,115.4,115.4,0,0,0,0-46.065,113.662,113.662,0,0,0-17.2-40.865A114.619,114.619,0,0,0,172.485,22.7a113.74,113.74,0,0,0-21.453-6.659A115.145,115.145,0,0,0,128,13.714Z" transform="translate(20 20)" fill="url(#a)"/><g transform="translate(49.714 49.714)"><path d="M98.285,196.571h0C44.228,196.571,0,152.342,0,98.285H0C0,44.228,44.228,0,98.285,0h0c54.057,0,98.285,44.228,98.285,98.285h0C196.571,152.342,152.342,196.571,98.285,196.571Z" fill="#002868"/><path d="M208.507,217.942H109.435A9.463,9.463,0,0,1,100,208.507V109.435A9.463,9.463,0,0,1,109.435,100h99.072a9.463,9.463,0,0,1,9.435,9.435v99.072A9.463,9.463,0,0,1,208.507,217.942Z" transform="translate(-60.686 -60.686)" fill="#fff"/><g transform="translate(55.016 123.883)"><path d="M147.252,336.993a.59.59,0,0,1-.562-.594V320.552a.59.59,0,0,0-.562-.594h-5.594a.587.587,0,0,1-.594-.562v-3.063a.617.617,0,0,1,.594-.594h17.22a.614.614,0,0,1,.594.594V319.4a.59.59,0,0,1-.594.562H152.19a.614.614,0,0,0-.594.594V336.4a.59.59,0,0,1-.562.594Z" transform="translate(-139.94 -315.492)" fill="#002868"/><path d="M209.2,316.334a.59.59,0,0,1,.562-.594h3.751a.614.614,0,0,1,.594.594v10.815c0,6.408-3.625,10.127-9.376,10.127-5.72,0-9.314-3.719-9.314-10.127V316.334a.59.59,0,0,1,.562-.594h3.751a.614.614,0,0,1,.594.594V327.3c0,3.157,1.624,5.406,4.439,5.406s4.439-2.249,4.439-5.406V316.334Z" transform="translate(-173.609 -315.492)" fill="#002868"/><path d="M265.526,322.3a.8.8,0,0,1-.845-.562,4.282,4.282,0,0,0-4.281-2.5c-1.97,0-3.625.688-3.625,2,0,1.439,1.533,2.033,4.906,2.437,5.127.594,8.063,2.158,8.063,6.22,0,4.564-4,6.97-9.125,6.97-4.439,0-8.252-2.158-8.846-6.687-.063-.436.157-.594.594-.594h3.44a.774.774,0,0,1,.814.531c.468,1.5,2.064,2.658,4.376,2.658,2.033,0,3.813-.751,3.813-2.343,0-1.907-1.875-2.249-5.626-2.721-4.313-.562-7.312-1.812-7.312-5.783s3.409-6.813,8.751-6.813c4.812,0,8.158,2.595,8.846,6.471.094.436-.031.719-.5.719h-3.444Z" transform="translate(-207.801 -315.11)" fill="#002868"/><path d="M307.442,336.993a.59.59,0,0,1-.562-.594V316.334a.59.59,0,0,1,.562-.594h8.5c6.314,0,11.22,4.344,11.22,10.69,0,6.251-4.844,10.564-11.22,10.564Zm8.5-4.222a6.417,6.417,0,0,0-.031-12.816h-3.53a.587.587,0,0,0-.562.594V332.2a.562.562,0,0,0,.562.562h3.562Z" transform="translate(-241.249 -315.492)" fill="#002868"/></g><path d="M217.225,175.552H105.573A1.577,1.577,0,0,1,104,173.979V111.863A7.886,7.886,0,0,1,111.863,104h99.072a7.886,7.886,0,0,1,7.863,7.863v62.116A1.577,1.577,0,0,1,217.225,175.552Z" transform="translate(-63.113 -63.113)" fill="#002868"/><path d="M247.131,183.164H236.909a1.183,1.183,0,0,1-1.179-1.179V138.739a1.183,1.183,0,0,1,1.179-1.179h10.222a1.183,1.183,0,0,1,1.179,1.179v43.246A1.183,1.183,0,0,1,247.131,183.164Z" transform="translate(-143.055 -83.479)" fill="#fff"/><path d="M235.57,150.141H189.179A1.183,1.183,0,0,1,188,148.961V138.739a1.183,1.183,0,0,1,1.179-1.179H235.57a1.183,1.183,0,0,1,1.179,1.179v10.222A1.183,1.183,0,0,1,235.57,150.141Z" transform="translate(-114.089 -83.479)" fill="#fff"/></g></g></g></svg>
